X:1
T:Under the Blood
T:Under the Blood
T:C. S. Brown
T:Ida Augusta Guirey, 1920
T:Public Domain Courtesy of the Cyber Hymnal™
T:Public Domain Courtesy of the Cyber Hymnal™
C:C. S. Brown
Z:Public Domain
Z:Courtesy of the Cyber Hymnal™
%%score ( 1 2 ) ( 3 4 )
L:1/8
Q:1/4=93
M:6/8
K:Ab
V:1 treble 
V:2 treble 
V:3 bass 
V:4 bass 
V:1
 [CE] | [Ec]>[Ec][Ec] [CA][DB][Ec] | [DB][DA][DF] [CE]2 [CE] | [CA][CA][CA] [=Dc][DB][DA] | %4
w: 1.~My|sins, which were ma- ny, are|all washed a- way, And|now I am hap- py and|
w: 2.~In|Cal- va- ry’s fount- ain there’s|life- giv- ing power; I|plunged and my heart was made|
w: 3.~There’s|room in this fount- ain for|all who will come, There’s|par- don and cleans- ing for|
 [EB]3- [EB]2 [Ed] | [Ec]>[Ec][Ec] [CA][DB][Ec] | [DB][DA][DF] [Fd]2 [Fd] | %7
w: free; * I|sing of God’s mer- cy by|night and by day, His|
w: whole; * And|now I am trust- ing my|Sav- ior each hour; His|
w: you; * The|mo- ment you en- ter your|heal- ing is won, And|
 [Ec]>[Ec][Ec] [Ec][CA][DB] | [CA]3- [CA]2 ||"^Refrain" [CA] | B>BB dc[EB] | c3- [Ec]2 [EA] | %12
w: won- der- ful mer- cy to|me. *||||
w: glor- y is fill- ing my|soul. *|My|sins are all un- der the|blood, I’m washed|
w: you are a crea- ture made|new. *||||
 B>BB =dc[AB] | e3- [Be]2 [Ge] | [Ae]>[Ae][Ae] [Ec][DB][CA] | [EB][EB][_Gc] [Fd]2 [DF] | %16
w: ||||
w: * in the soul- heal- ing|flood; Christ died|* in my place; I am|saved by His grace; Praise|
w: ||||
 [CE]2 [Ec] [Ec]<[CA][DB] | [CA]3- [CA]2 |] %18
w: ||
w: God, I’m un- der the|blood. *|
w: ||
V:2
 x | x6 | x6 | x6 | x6 | x6 | x6 | x6 | x5 || x | E3 E2 x | EEE x3 | E3 A2 x | GGA x3 | x6 | x6 | %16
 x6 | x5 |] %18
V:3
 [A,,A,] | [A,,A,]>[A,,A,][A,,A,] [A,,A,][A,,A,][A,,A,] | [D,F,][D,F,][D,A,] [A,,A,]2 [A,,A,] | %3
w: ~|~ ~ ~ ~ ~ ~|~ ~ ~ ~ ~|
 [F,A,][F,A,][F,A,] [B,,A,][B,,A,][B,,A,] | [E,G,]3- [E,G,]2 [E,B,] | %5
w: ~ ~ ~ ~ ~ ~|~ * ~|
 [A,,A,]>[A,,A,][A,,A,] [A,,A,][A,,A,][A,,A,] | [D,F,][D,F,][D,A,] [D,A,]2 [D,A,] | %7
w: ~ ~ ~ ~ ~ ~|~ ~ ~ ~ ~|
 [E,A,]>[E,A,][E,A,] [E,A,][E,A,][E,G,] | [A,,A,]3- [A,,A,]2 || [A,,A,] | [E,G,]3 (B,A,)[E,G,] | %11
w: ~ ~ ~ ~ ~ ~|~ *|My|sins are * all|
 A,[E,A,][C,A,] [A,,A,]2 [C,A,] | [E,G,]3 [B,,B,]2 B, | [E,B,][E,B,][E,C] [E,D]2 [E,D] | %14
w: un- der the blood, I’m|washed in the|soul- heal- ing flood; *|
 [A,C]>[A,C][A,C] A,A,A, | [E,G,][E,G,]A, [D,A,]2 [D,A,] | [E,A,]2 [E,A,] [E,A,]<[E,A,][E,G,] | %17
w: |||
 [A,,A,]3- [A,,A,]2 |] %18
w: |
V:4
 x | x6 | x6 | x6 | x6 | x6 | x6 | x6 | x5 || x | x3 E,2 x | A, x5 | x5 B, | x6 | x3 A,A,A, | %15
 x2 A, x3 | x6 | x5 |] %18

